icons/home-17.svg

<svg width="16" height="17" viewBox="0 0 16 17" fill="none" xmlns="http://www.w3.org/2000/svg">
<path fill-rule="evenodd" clip-rule="evenodd" d="M8.12727 3.46753C8.09115 3.43868 8.04631 3.42297 8.00009 3.42297C7.95387 3.42297 7.90903 3.43868 7.87291 3.46753L3.59294 6.89151C3.56896 6.91065 3.54962 6.93497 3.53635 6.96263C3.52308 6.9903 3.51623 7.02061 3.51631 7.05129V12.7734C3.51631 12.8859 3.60761 12.9772 3.72012 12.9772H5.96201V8.69725C5.96201 8.53508 6.02643 8.37957 6.14109 8.2649C6.25575 8.15023 6.41127 8.08582 6.57343 8.08582H9.42675C9.58891 8.08582 9.74445 8.15023 9.85907 8.2649C9.97377 8.37957 10.0382 8.53508 10.0382 8.69725V12.9772H12.2801C12.3341 12.9772 12.386 12.9558 12.4242 12.9175C12.4624 12.8793 12.4839 12.8275 12.4839 12.7734V7.05048C12.4838 7.01993 12.4769 6.98978 12.4637 6.96226C12.4504 6.93475 12.4311 6.91057 12.4072 6.89151L8.12727 3.46753ZM7.10823 2.51288C7.36122 2.3104 7.67563 2.20007 7.99968 2.20007C8.32374 2.20007 8.63814 2.3104 8.89114 2.51288L13.1711 5.93687C13.5094 6.20752 13.7067 6.61759 13.7067 7.05129V12.7734C13.7067 13.1518 13.5564 13.5146 13.2888 13.7822C13.0213 14.0497 12.6584 14.2001 12.2801 14.2001H9.42675C9.26459 14.2001 9.10907 14.1357 8.99441 14.021C8.87974 13.9063 8.81532 13.7508 8.81532 13.5886V9.30867H7.18486V13.5886C7.18486 13.7508 7.12044 13.9063 7.00577 14.021C6.89111 14.1357 6.73559 14.2001 6.57343 14.2001H3.72012C3.34174 14.2001 2.97886 14.0497 2.71131 13.7822C2.44376 13.5146 2.29346 13.1518 2.29346 12.7734V7.05048C2.29346 6.61759 2.49074 6.20752 2.82907 5.93687L7.10904 2.51288H7.10823Z" fill="#272431"/>
</svg>

<svg xmlns="http://www.w3.org/2000/svg" width="16" height="17" viewBox="0 0 16 17"><path fill-rule="evenodd" d="M8.127 3.468a.204.204 0 00-.254 0l-4.28 3.424a.204.204 0 00-.077.16v5.721c0 .113.092.204.204.204h2.242v-4.28a.611.611 0 01.611-.611h2.854a.611.611 0 01.611.611v4.28h2.242a.204.204 0 00.204-.204V7.05a.206.206 0 00-.077-.158l-4.28-3.424zm-1.019-.955a1.427 1.427 0 011.783 0l4.28 3.424c.338.27.536.68.536 1.114v5.722A1.427 1.427 0 0112.28 14.2H9.427a.611.611 0 01-.612-.611v-4.28h-1.63v4.28a.612.612 0 01-.612.611H3.72a1.427 1.427 0 01-1.427-1.427V7.05c0-.432.198-.842.536-1.113l4.28-3.424z"/></svg>
